images/new-icon.svg

<?xml version="1.0" encoding="UTF-8" standalone="no"?>
<!-- Created with Inkscape (http://www.inkscape.org/) -->

<svg
   xmlns:dc="http://purl.org/dc/elements/1.1/"
   xmlns:cc="http://creativecommons.org/ns#"
   xmlns:rdf="http://www.w3.org/1999/02/22-rdf-syntax-ns#"
   xmlns:svg="http://www.w3.org/2000/svg"
   xmlns="http://www.w3.org/2000/svg"
   xmlns:sodipodi="http://sodipodi.sourceforge.net/DTD/sodipodi-0.dtd"
   xmlns:inkscape="http://www.inkscape.org/namespaces/inkscape"
   width="500"
   height="500"
   viewBox="0 0 500.00001 500.00001"
   id="svg2"
   version="1.1"
   inkscape:version="0.91 r13725"
   sodipodi:docname="new-icon.svg">
  <defs
     id="defs4" />
  <sodipodi:namedview
     id="base"
     pagecolor="#ffffff"
     bordercolor="#666666"
     borderopacity="1.0"
     inkscape:pageopacity="0.0"
     inkscape:pageshadow="2"
     inkscape:zoom="1.4142136"
     inkscape:cx="330.91678"
     inkscape:cy="277.28916"
     inkscape:document-units="px"
     inkscape:current-layer="layer1"
     showgrid="true"
     units="px"
     inkscape:window-width="1680"
     inkscape:window-height="1028"
     inkscape:window-x="1358"
     inkscape:window-y="-8"
     inkscape:window-maximized="1">
    <inkscape:grid
       type="xygrid"
       id="grid4925"
       spacingx="10"
       spacingy="10" />
  </sodipodi:namedview>
  <metadata
     id="metadata7">
    <rdf:RDF>
      <cc:Work
         rdf:about="">
        <dc:format>image/svg+xml</dc:format>
        <dc:type
           rdf:resource="http://purl.org/dc/dcmitype/StillImage" />
        <dc:title></dc:title>
      </cc:Work>
    </rdf:RDF>
  </metadata>
  <g
     inkscape:label="Layer 1"
     inkscape:groupmode="layer"
     id="layer1"
     transform="translate(0,-552.36216)"
     style="display:inline">
    <path
       style="fill:#000000;fill-opacity:1;fill-rule:evenodd;stroke:none;stroke-opacity:1"
       d="M 250 0 A 50 50 0 0 0 200 50 A 50 50 0 0 0 240 98.986328 L 240 350 L 168.25 350 A 30 30 0 0 0 140 330 A 30 30 0 0 0 110 360 A 30 30 0 0 0 140 390 A 30 30 0 0 0 168.24609 370 L 240 370 L 240 421.30078 A 40 40 0 0 0 210 460 A 40 40 0 0 0 250 500 A 40 40 0 0 0 290 460 A 40 40 0 0 0 260 421.32227 L 260 370 L 331.75 370 A 30 30 0 0 0 360 390 A 30 30 0 0 0 390 360 A 30 30 0 0 0 360 330 A 30 30 0 0 0 331.75391 350 L 260 350 L 260 98.935547 A 50 50 0 0 0 300 50 A 50 50 0 0 0 250 0 z M 250 25 A 25 25 0 0 1 275 50 A 25 25 0 0 1 250 75 A 25 25 0 0 1 225 50 A 25 25 0 0 1 250 25 z "
       transform="translate(0,552.36216)"
       id="path4136" />
  </g>
  <g
     inkscape:groupmode="layer"
     id="layer11"
     inkscape:label="Layer 5">
    <path
       style="fill:#000000;fill-opacity:1;fill-rule:evenodd;stroke:none;stroke-width:0.5;stroke-opacity:1"
       d="m 132.47212,85.751704 c -14.19285,0.381223 -28.55129,6.319228 -38.146669,16.915916 -3.717643,4.2903 -6.710002,10.42141 -4.890442,16.1124 2.422272,1.49371 5.224881,-1.06974 7.653686,-1.56949 9.258245,-3.54518 19.838975,-3.82088 29.287725,-0.98422 15.67148,5.63473 25.96872,20.50325 32.4218,35.16781 10.8987,24.30772 11.65572,51.56151 19.47507,76.90789 6.37344,21.56987 15.5415,43.71338 33.22556,58.48806 11.55865,9.72303 26.94356,14.29535 41.94885,13.20773 14.37552,-0.17063 28.81562,-5.1459 39.94434,-14.29004 9.02147,-7.75109 16.82134,-16.91862 22.4375,-27.43652 13.16023,-22.85019 20.49253,-48.31575 29.77464,-72.83217 11.16807,-27.45598 26.24398,-53.9871 48.26248,-74.19237 10.6952,-10.08034 24.0958,-17.425808 38.51073,-20.595582 1.93489,-0.881431 0.0172,-2.794463 -1.46973,-2.508789 -21.10308,-3.066611 -43.50667,-2.883747 -63.19082,6.277542 -23.92096,10.520299 -41.2059,31.839799 -52.82675,54.658989 -9.87306,20.83159 -14.2921,43.64788 -20.33343,65.75681 -4.27709,15.63471 -8.38392,32.35307 -19.52281,44.72757 -9.18978,9.80577 -24.88831,12.91701 -37.14474,7.50878 -11.07532,-5.87153 -16.23612,-18.34184 -19.83929,-29.68008 -6.77978,-23.96287 -9.51708,-49.04127 -15.19213,-73.34737 -4.89756,-21.34149 -11.91547,-43.39656 -27.56624,-59.44033 -10.37702,-11.077976 -24.85646,-18.738126 -40.24609,-18.832029 -0.85751,-0.02507 -1.71543,-0.03173 -2.57324,-0.02051 z"
       id="path4950"
       inkscape:connector-curvature="0" />
  </g>
</svg>

<?xml version="1.0" encoding="UTF-8" standalone="no"?>
<!-- Created with Inkscape (http://www.inkscape.org/) -->

<svg
   xmlns:dc="http://purl.org/dc/elements/1.1/"
   xmlns:cc="http://creativecommons.org/ns#"
   xmlns:rdf="http://www.w3.org/1999/02/22-rdf-syntax-ns#"
   xmlns:svg="http://www.w3.org/2000/svg"
   xmlns="http://www.w3.org/2000/svg"
   xmlns:sodipodi="http://sodipodi.sourceforge.net/DTD/sodipodi-0.dtd"
   xmlns:inkscape="http://www.inkscape.org/namespaces/inkscape"
   width="500"
   height="500"
   viewBox="0 0 500.00001 500.00001"
   id="svg2"
   version="1.1"
   inkscape:version="0.91 r13725"
   sodipodi:docname="new-icon.svg">
  <defs
     id="defs4" />
  <sodipodi:namedview
     id="base"
     pagecolor="#ffffff"
     bordercolor="#666666"
     borderopacity="1.0"
     inkscape:pageopacity="0.0"
     inkscape:pageshadow="2"
     inkscape:zoom="1.4142136"
     inkscape:cx="330.91678"
     inkscape:cy="277.28916"
     inkscape:document-units="px"
     inkscape:current-layer="layer1"
     showgrid="true"
     units="px"
     inkscape:window-width="1680"
     inkscape:window-height="1028"
     inkscape:window-x="1358"
     inkscape:window-y="-8"
     inkscape:window-maximized="1">
    <inkscape:grid
       type="xygrid"
       id="grid4925"
       spacingx="10"
       spacingy="10" />
  </sodipodi:namedview>
  <metadata
     id="metadata7">
    <rdf:RDF>
      <cc:Work
         rdf:about="">
        <dc:format>image/svg+xml</dc:format>
        <dc:type
           rdf:resource="http://purl.org/dc/dcmitype/StillImage" />
        <dc:title></dc:title>
      </cc:Work>
    </rdf:RDF>
  </metadata>
  <g
     inkscape:label="Layer 1"
     inkscape:groupmode="layer"
     id="layer1"
     transform="translate(0,-552.36216)"
     style="display:inline">
    <path
       style="fill:#000000;fill-opacity:1;fill-rule:evenodd;stroke:none;stroke-opacity:1"
       d="M 250 0 A 50 50 0 0 0 200 50 A 50 50 0 0 0 240 98.986328 L 240 267.9043 C 239.28689 267.65268 238.58158 267.37801 237.88867 267.07227 C 226.81335 261.20074 221.65395 248.73082 218.05078 237.39258 C 211.271 213.42971 208.53247 188.35102 202.85742 164.04492 C 197.95986 142.70343 190.94179 120.64729 175.29102 104.60352 C 164.914 93.52554 150.43455 85.865387 135.04492 85.771484 C 134.18741 85.746414 133.33047 85.740733 132.47266 85.751953 C 118.27981 86.133176 103.92155 92.071281 94.326172 102.66797 C 90.608529 106.95827 87.615987 113.08831 89.435547 118.7793 C 91.857819 120.27301 94.659086 117.71069 97.087891 117.21094 C 106.34614 113.66576 116.9282 113.3899 126.37695 116.22656 C 142.04843 121.86129 152.34575 136.72997 158.79883 151.39453 C 169.69753 175.70225 170.45409 202.95635 178.27344 228.30273 C 184.64688 249.8726 193.81399 272.01634 211.49805 286.79102 C 219.60086 293.60703 229.58546 297.88078 240 299.45898 L 240 350 L 168.25 350 A 30 30 0 0 0 140 330 A 30 30 0 0 0 110 360 A 30 30 0 0 0 140 390 A 30 30 0 0 0 168.24609 370 L 240 370 L 240 421.30078 A 40 40 0 0 0 210 460 A 40 40 0 0 0 250 500 A 40 40 0 0 0 290 460 A 40 40 0 0 0 260 421.32227 L 260 370 L 331.75 370 A 30 30 0 0 0 360 390 A 30 30 0 0 0 390 360 A 30 30 0 0 0 360 330 A 30 30 0 0 0 331.75391 350 L 260 350 L 260 299.57422 C 272.1386 298.20239 283.95716 293.45984 293.39258 285.70703 C 302.41405 277.95594 310.21392 268.78938 315.83008 258.27148 C 328.99031 235.42129 336.32141 209.95587 345.60352 185.43945 C 356.77159 157.98347 371.84869 131.45136 393.86719 111.24609 C 404.56239 101.16575 417.96202 93.820165 432.37695 90.650391 C 434.31184 89.76896 432.39513 87.856904 430.9082 88.142578 C 409.80512 85.075967 387.40095 85.258633 367.7168 94.419922 C 343.79584 104.94022 326.51148 126.25893 314.89062 149.07812 C 305.01756 169.90972 300.59797 192.72701 294.55664 214.83594 C 290.27955 230.47065 286.17209 247.188 275.0332 259.5625 C 270.99673 263.86953 265.70466 266.8819 260 268.45117 L 260 98.935547 A 50 50 0 0 0 300 50 A 50 50 0 0 0 250 0 z M 250 25 A 25 25 0 0 1 275 50 A 25 25 0 0 1 250 75 A 25 25 0 0 1 225 50 A 25 25 0 0 1 250 25 z "
       transform="translate(0,552.36216)"
       id="path4136" />
  </g>
  <g
     inkscape:groupmode="layer"
     id="layer11"
     inkscape:label="Layer 5" />
</svg>
